X: 7
T: Bålgetingen
O: Jät, Småland
S: efter August Strömberg
D: Svensson, Gustafsson mfl - Bålgetingen
Z: Till abc av Jon Magnusson 100517 
R: Schottis
M: 4/4
L: 1/8
K: G
D2B,D B>A GF|E>CEG cBAG|F>DFA fgef|de cd B4|
D2B,D B>A GF|E>CEG cBAG|F>GAB cdef|g2b2 g4::
g>fgb agfe|e>ddg B3d|d>cce A3e|e>ddg B4|
g>fgb agfe|e>ddg B2d2|c>Bcd ecAF|[1 G2B2 G4:|[2 G2B2 G2FG|]
[K:D]
|:A2 fef2 AG|F>A dcd2 GF|E2ce A2ce|Adfe f4|
A2 fef2 AG|F>A dcdA GF|E2ce A2ce|d2f2 d4:|

